images/icons/v2/profile-outline-20.svg

<svg height="20" viewBox="0 0 20 20" width="20" xmlns="http://www.w3.org/2000/svg"><path d="m13.653 9.893a5 5 0 1 0 -7.306 0 5.589 5.589 0 0 0 -4.347 5.44v1.667h1.5v-1.667a4.088 4.088 0 0 1 4.083-4.083h4.834a4.088 4.088 0 0 1 4.083 4.083v1.667h1.5v-1.667a5.589 5.589 0 0 0 -4.347-5.44zm-3.653.107a3.5 3.5 0 1 1 3.5-3.5 3.5 3.5 0 0 1 -3.5 3.5z"/></svg>

<svg xmlns="http://www.w3.org/2000/svg" width="20" height="20" viewBox="0 0 20 20"><title>profile-outline-20</title><path d="M13.653,9.893a5,5,0,1,0-7.306,0A5.589,5.589,0,0,0,2,15.333V17H3.5V15.333A4.088,4.088,0,0,1,7.583,11.25h4.834A4.088,4.088,0,0,1,16.5,15.333V17H18V15.333A5.589,5.589,0,0,0,13.653,9.893ZM10,10a3.5,3.5,0,1,1,3.5-3.5A3.5,3.5,0,0,1,10,10Z"/></svg>
